X:65
T:Nancy's Frolick THO4.065
M:6/8
L:1/8
Z:vmp. Peter Dunk 2010/11.from a transcription by Fynn Titford-Mock 2007
B:Thompson's Compleat Collection of 200 Favourite Country Dances Volume IV.
Q:3/8=110
K:D
A,|DED AFD|B2 B Bcd|AFD AFD|CDE E3|\
AFD AFD|BGE Bcd|cBA E2 ^G|A3 A2:|
|:ABA ecA|G2 G BGE|F2 G AFD|CED A,B,G,|\
G2 b F2 a| E2 g e2 g|fed A2 c| d3 d3:|

